X:1
T:Blairgowrie, 76.76 D
T:Blairgowrie, 76.76 D
T:John Bacchus Dykes, 1872
T:Public Domain Courtesy of the Cyber Hymnal™
C:John Bacchus Dykes, 1872
Z:Public Domain
Z:Courtesy of the Cyber Hymnal™
%%score ( 1 2 ) 3
L:1/8
Q:1/4=115
M:4/4
K:D
V:1 treble 
V:2 treble 
V:3 bass 
V:1
 [DF]2 | [CE]2 [DF]2 [CG]2 [CB]2 | [DA]4 [DF]2 [DF]2 | [DA]3 [DF] D2 [CE]2 | [DF]6 [DF]2 | %5
 [CE]2 [DF]2 [CG]2 [CB]2 | [DA]4 [DF]2 [EA]2 | [Fd]3 [Ec] [DB]2 [Ec]2 | [CA]6 [DA]2 | %9
 [CA]3 [CE] [CE]2 [CF]2 | [CE]4 D2 [Gd]2 | [Fd]3 [FA] [FA]2 F2 | [FA]4 [EG]2 [DF]2 | %13
 [DF]2 [DE]2 [CF]2 [CG]2 | (A2 B2) [Dc]2 [Dd]2 | [DF]3 [DG] [DE]2 [CA]2 | D6 |] %17
V:2
 x2 | x8 | x8 | x4 D2 x2 | x8 | x8 | x8 | x8 | x8 | x8 | x4 D2 x2 | x6 F2 | x8 | x8 | D4 x4 | x8 | %16
 D6 |] %17
V:3
 [D,A,]2 | [G,A,]2 [F,A,]2 [E,A,]2 [G,A,]2 | [F,A,]4 [D,A,]2 [B,,B,]2 | %3
 [A,,F,]3 [A,,A,] [A,,F,]2 [A,,A,]2 | [D,A,]6 [F,A,]2 | [G,A,]2 [F,A,]2 [E,A,]2 [G,A,]2 | %6
 [F,A,]4 [D,A,]2 [C,A,]2 | [B,,A,]3 [B,,A,] [E,^G,]2 [E,G,]2 | [A,,A,]6 [A,,F,]2 | %9
 [A,,G,]3 [A,,G,] [A,,G,]2 [A,,A,]2 | [A,,G,]4 [D,F,]2 [D,B,]2 | [D,=C]3 [D,C] [D,C]2 [D,D]2 | %12
 [D,=C]4 [E,B,]2 [F,A,]2 | [G,B,]2 [G,B,]2 [G,A,]2 [G,A,]2 | [F,A,]4 [B,,^G,]2 [B,,G,]2 | %15
 [A,,A,]3 [G,,A,] [A,,G,]2 [A,,G,]2 | [D,F,]6 |] %17

